packages/dnb-ui-lib/assets/icons/bankid_on_mobile.svg

<svg width="16" height="16" viewBox="0 0 16 16" fill="none" xmlns="http://www.w3.org/2000/svg">
<path fill-rule="evenodd" clip-rule="evenodd" d="M1.25 3C1.25 1.48122 2.48122 0.25 4 0.25H9C10.2426 0.25 11.25 1.25736 11.25 2.5H9.75C9.75 2.08579 9.41421 1.75 9 1.75H4C3.30964 1.75 2.75 2.30964 2.75 3V13C2.75 13.6904 3.30964 14.25 4 14.25H8.5C9.19036 14.25 9.75 13.6904 9.75 13V11C9.75 10.5858 10.0858 10.25 10.5 10.25C10.9142 10.25 11.25 10.5858 11.25 11V13C11.25 14.5188 10.0188 15.75 8.5 15.75H4C2.48122 15.75 1.25 14.5188 1.25 13V3ZM6.875 12.25C6.875 12.5956 6.59482 12.875 6.25 12.875C5.90518 12.875 5.625 12.5956 5.625 12.25C5.625 11.9044 5.90518 11.625 6.25 11.625C6.59482 11.625 6.875 11.9044 6.875 12.25ZM5.75 4.5C5.75 4.29289 5.91789 4.125 6.125 4.125H7.5C7.70711 4.125 7.875 4.29289 7.875 4.5C7.875 4.70711 7.70711 4.875 7.5 4.875H6.125C5.91789 4.875 5.75 4.70711 5.75 4.5ZM12.5 4.5C12.5 4.29289 12.6679 4.125 12.875 4.125H14.25C14.4571 4.125 14.625 4.29289 14.625 4.5C14.625 4.70711 14.4571 4.875 14.25 4.875H12.875C12.6679 4.875 12.5 4.70711 12.5 4.5ZM12.875 5.625C12.6679 5.625 12.5 5.79289 12.5 6C12.5 6.20711 12.6679 6.375 12.875 6.375H14.25C14.4571 6.375 14.625 6.20711 14.625 6C14.625 5.79289 14.4571 5.625 14.25 5.625H12.875ZM9.125 6C9.125 5.79289 9.29289 5.625 9.5 5.625H10.875C11.0821 5.625 11.25 5.79289 11.25 6C11.25 6.20711 11.0821 6.375 10.875 6.375H9.5C9.29289 6.375 9.125 6.20711 9.125 6ZM9.5 7.125C9.29289 7.125 9.125 7.29289 9.125 7.5C9.125 7.70711 9.29289 7.875 9.5 7.875H10.875C11.0821 7.875 11.25 7.70711 11.25 7.5C11.25 7.29289 11.0821 7.125 10.875 7.125H9.5ZM5.75 7.5C5.75 7.29289 5.91789 7.125 6.125 7.125H7.5C7.70711 7.125 7.875 7.29289 7.875 7.5C7.875 7.70711 7.70711 7.875 7.5 7.875H6.125C5.91789 7.875 5.75 7.70711 5.75 7.5ZM6.125 8.625C5.91789 8.625 5.75 8.79289 5.75 9C5.75 9.20711 5.91789 9.375 6.125 9.375H7.5C7.70711 9.375 7.875 9.20711 7.875 9C7.875 8.79289 7.70711 8.625 7.5 8.625H6.125ZM12.5 9C12.5 8.79289 12.6679 8.625 12.875 8.625H14.25C14.4571 8.625 14.625 8.79289 14.625 9C14.625 9.20711 14.4571 9.375 14.25 9.375H12.875C12.6679 9.375 12.5 9.20711 12.5 9Z" fill="#333333"/>
</svg>

<svg width="16" height="16" viewBox="0 0 16 16" fill="none" xmlns="http://www.w3.org/2000/svg"><path fill-rule="evenodd" clip-rule="evenodd" d="M1.25 3A2.75 2.75 0 014 .25h5a2.25 2.25 0 012.25 2.25h-1.5A.75.75 0 009 1.75H4c-.69 0-1.25.56-1.25 1.25v10c0 .69.56 1.25 1.25 1.25h4.5c.69 0 1.25-.56 1.25-1.25v-2a.75.75 0 011.5 0v2a2.75 2.75 0 01-2.75 2.75H4A2.75 2.75 0 011.25 13V3zm5.625 9.25a.625.625 0 11-1.25 0 .625.625 0 011.25 0zM5.75 4.5c0-.207.168-.375.375-.375H7.5a.375.375 0 110 .75H6.125A.375.375 0 015.75 4.5zm6.75 0c0-.207.168-.375.375-.375h1.375a.375.375 0 010 .75h-1.375A.375.375 0 0112.5 4.5zm.375 1.125a.375.375 0 000 .75h1.375a.375.375 0 000-.75h-1.375zM9.125 6c0-.207.168-.375.375-.375h1.375a.375.375 0 010 .75H9.5A.375.375 0 019.125 6zM9.5 7.125a.375.375 0 100 .75h1.375a.375.375 0 000-.75H9.5zM5.75 7.5c0-.207.168-.375.375-.375H7.5a.375.375 0 110 .75H6.125A.375.375 0 015.75 7.5zm.375 1.125a.375.375 0 100 .75H7.5a.375.375 0 100-.75H6.125zM12.5 9c0-.207.168-.375.375-.375h1.375a.375.375 0 010 .75h-1.375A.375.375 0 0112.5 9z" fill="#333"/></svg>
